!!!COM: Scriabin, Alexander
!!!OTL@@FR: Prélude en si majeur
!!!OTL@@EN: Prelude in B Major
!!!OPR@@FR: 4 Préludes
!!!OPR@@EN: 4 Preludes
!!!OPS: 37
!!!ONM: 3
!!!ODT: 1903
!!!AGN: Prelude
**kern	**kern	**dynam
*staff2	*staff1	*staff1/2
*Ipiano	*Ipiano	*
*clefF4	*clefG2	*
*k[f#c#g#d#a#]	*k[f#c#g#d#a#]	*
*B:	*B:	*
*M3/4	*M3/4	*
=1	=1	=1
*	*^	*
2EE 2BB	2G#	12d#L	.
.	.	12.B	.
.	.	24c#Jk	.
.	.	4.d#	.
4EE 4BB	4Gn 4B	.	.
.	.	8e	.
=2	=2	=2	=2
*	*	*^	*
4DD# 4BB	8Gn\L	2.B	8e#XL	.
.	8F#\J	.	8f#J	.
2CC# 2C#	2E#X\	.	8f##X	.
.	.	.	4dd#	.
.	.	.	8a#	.
*	*	*v	*v	*
=3	=3	=3	=3
2FFF# 2FF#	2En 2A#	8.g#L	.
.	.	16B#XJk	.
.	.	4.d#	.
4FFF# 4FF#	4E 4A#	.	.
.	.	8c#	.
=4	=4	=4	=4
2BBB 2BB	2C# 2F#	8c#L	.
.	.	8B	.
.	.	8A#	.
.	.	8B	.
4BBB 4BB	4F##X 4B	8c#	.
.	.	8c##XJ	.
=5	=5	=5	=5
2EE 2BB	2G# 2B	12d#L	.
.	.	12.B	.
.	.	24c#Jk	.
.	.	4.d#	.
4EE 4BB	4Gn 4B	.	.
.	.	8e	.
=6	=6	=6	=6
*	*	*^	*
8.BBBL 8.BB	8Gn\L	4d#	8e#XL	.
.	8F#\J	.	8f#J	.
16AAAnJk 16AAn	.	.	.	.
2GGG# 2GG#	4F#\	4c#	8g#X	.
.	.	.	4ee#X	.
.	4B#X\	4f#	.	.
.	.	.	8dd#	.
*	*	*v	*v	*
=7	=7	=7	=7
2CC# 2C#	2Bn 2e#X	8dd#L	.
.	.	8f##XJ	.
.	.	4.a#	.
4CC# 4C#	4B 4e#	.	.
.	.	8g#	.
=8	=8	=8	=8
*	*	*^	*
2.FF# 2.C#	2.A#\	8e#XL	8g#L	.
.	.	8f#J	8f#	.
.	.	4rc	8e#	.
.	.	.	8f#	.
.	.	4rc	8B#X	.
.	.	.	8c#J	.
*	*	*v	*v	*
=9	=9	=9	=9
2.CC# 2.C#	2An	8eL	.
.	.	8d#J	.
.	.	8f#	.
.	.	4e	.
.	4G#	.	.
.	.	8e	.
*	*clefF4	*	*
=10	=10	=10	=10
*^	*	*	*
2.DD#	4AAn	2.F##X	8eL	.
.	.	.	8d#	.
.	4AA#X	.	8c##X	.
.	.	.	8d#	.
.	4D#	.	8G##X	.
.	.	.	8A#J	.
=11	=11	=11	=11	=11
2EE	2GG#	2G#X	8d#L	.
.	.	.	8c#	.
.	.	.	8B#X	.
.	.	.	8c#	.
4EE#X	4C#	4rEE	8F##X	.
.	.	.	8G#J	.
=12	=12	=12	=12	=12
2.FF#	4En	4rEE	12BL	.
.	.	.	12G##X	.
.	.	.	12A#J	.
.	2AA#	[2G#X [2g#	8g#L	.
.	.	.	8B#XJ	.
.	.	.	8c#L	.
.	.	.	8c##XJ	.
*v	*v	*	*	*
*	*v	*v	*
*	*clefG2	*
=13	=13	=13
*	*^	*
*	*	*^	*
8EEL	2.B\	2G#] 2g#]	12d#L	.
.	.	.	12.B	.
8BB	.	.	.	.
.	.	.	24c#Jk	.
8B	.	.	4.d#	.
[8BBJ	.	.	.	.
4EE 4BB]	.	[4Gn [4gn	.	.
.	.	.	8e	.
=14	=14	=14	=14	=14
4DD# 4BB	2.B\	8GL] 8g]	8e#XL	.
.	.	8F#J	8f#J	.
2CC# 2C#	.	2E#X 2e#	8f##X	.
.	.	.	4dd#	.
.	.	.	8a#	.
*	*	*v	*v	*
=15	=15	=15	=15
8FFF#L	2En 2A# 2en	8g#L	.
8FF#	.	8B#XJ	.
8F#	.	4.d#	.
8FF#J	.	.	.
4E 4A# 4e	4rc	.	.
.	.	8c#	.
=16	=16	=16	=16
8BBBL	4D# 4F# 4d#	[4c#	.
8FF#	.	.	.
8F#	4rc	12c#L]	.
.	.	12B	.
8FF#J	.	.	.
.	.	12d#J	.
4D# 4B 4d#	4rc	12g#L	.
.	.	12e#X	.
.	.	12f#J	.
=17	=17	=17	=17
*^	*	*	*
4rEE	8BBBL	6rc	12cc#L	.
.	.	.	12a#	.
.	8FF#	.	.	.
.	.	[12b	12bJ	.
4rEE	8F#	4b] 4bb	8eeL	.
.	8BBJ	.	8dd#J	.
8eL	4An 4an	4f# 4ff#	8.cc#L	.
8d#J	.	.	.	.
.	.	.	16dd#Jk	.
*v	*v	*	*	*
=18	=18	=18	=18
8BBBL	4rc	12dd#L	.
.	.	12b	.
8EE	.	.	.
.	.	12cc#J	.
8E	4g# 4gg#	8.dd#L	.
8BBJ	.	.	.
.	.	16cc#Jk	.
4G# 4B 4g#	4e 4ee	12cc#L	.
.	.	12b	.
.	.	12g#J	.
=19	=19	=19	=19
*^	*	*	*
4rEE	8BBBL	6rc	12g#L	.
.	.	.	12e#X	.
.	8FF#	.	.	.
.	.	[12f#	12f#J	.
4rEE	8F#	4f#] 4ff#	8bL	.
.	8FF#J	.	8a#J	.
8BL	4E 4en	4c# 4cc#	8.g#L	.
8A#J	.	.	.	.
.	.	.	16a#Jk	.
*v	*v	*	*	*
=20	=20	=20	=20
8BBBL	4rc	12a#L	.
.	.	12f#	.
8FF#	.	.	.
.	.	12g#J	.
8F#	4d# 4dd#	8.a#L	.
8FF#J	.	.	.
.	.	16g#Jk	.
4D# 4F# 4d#	4B 4b	12g#L	.
.	.	12f#	.
.	.	12d#J	.
=21	=21	=21	=21
*^	*	*	*
4rEE	8BBBL	4rc	12c#L	.
.	.	.	12A#	.
.	8FF#	.	.	.
.	.	.	12BJ	.
4rEE	8F#	4b 4bb	8eeL	.
.	8BBJ	.	8dd#J	.
8eL	4An 4an	4f# 4ff#	8.cc#L	.
8d#J	.	.	.	.
.	.	.	16dd#Jk	.
*v	*v	*	*	*
=22	=22	=22	=22
8BBBL	4f##X 4ff##X	12dd#L	.
.	.	12b	.
8EE	.	.	.
.	.	12cc#J	.
8E	4g# 4gg#	8.dd#L	.
8BBJ	.	.	.
.	.	16cc#Jk	.
4G# 4B 4g#	4e 4ee	12cc#L	.
.	.	12b	.
.	.	12g#J	.
=23	=23	=23	=23
*^	*	*	*
4rEE	8BBBL	6rc	12g#L	.
.	.	.	12e#X	.
.	8FF#	.	.	.
.	.	[12f#	12f#J	.
4rEE	8F#	4f#] 4ff#	8bL	.
.	8FF#J	.	8a#J	.
8BL	4E 4en	4c# 4cc#	8.g#L	.
8A#J	.	.	.	.
.	.	.	16a#Jk	.
*v	*v	*	*	*
=24	=24	=24	=24
8BBBL	4c##X 4cc##X	12a#L	.
.	.	12f#	.
8FF#	.	.	.
.	.	12g#J	.
8F#	4d# 4dd#	8.a#L	.
8FF#J	.	.	.
.	.	16g#Jk	.
4D# 4F# 4d#	4B 4b	12g#L	.
.	.	12f#	.
.	.	12d#J	.
=25	=25	=25	=25
*^	*	*	*
4rEE	8BBBL	6rc	12g#L	.
.	.	.	12e#X	.
.	8FF#	.	.	.
.	.	[12f#	12f#J	.
4rEE	8F#	4f#] 4ff#	8bL	.
.	8FF#J	.	8a#J	.
8BL	4E 4en	4c# 4cc#	8.g#L	.
8A#J	.	.	.	.
.	.	.	16a#Jk	.
*v	*v	*	*	*
=26	=26	=26	=26
8BBBL	4c##X 4cc##X	12a#L	.
.	.	12f#	.
8FF#	.	.	.
.	.	12g#J	.
8F#	4d# 4dd#	8.a#L	.
8FF#J	.	.	.
.	.	16g#Jk	.
4D# 4F# 4d#	4B 4b	12g#L	.
.	.	12f#	.
.	.	12d#J	.
=27	=27	=27	=27
8BBBL	4c##X 4cc##X	12a#L	.
.	.	12f#	.
8FF#	.	.	.
.	.	12g#J	.
8F#	4d# 4dd#	8.a#L	.
8FF#J	.	.	.
.	.	16g#Jk	.
4D# 4F# 4d#	4B 4b	12g#L	.
.	.	12f#	.
.	.	12d#J	.
=28	=28	=28	=28
8BBBL	4d# 4dd#	8a#L	.
8FF#J	.	8g#J	.
8D#	4B 4b	12g#L	.
.	.	12f#	.
8r	.	.	.
.	.	12c#J	.
4r	4rc	12d#L	.
.	.	12A#	.
.	.	12BJ	.
=29	=29	=29	=29
2EE 2BB	2G#	12d#L	.
.	.	12.B	.
.	.	24c#Jk	.
.	.	4.d#	.
4EE 4BB	4Gn 4B	.	.
.	.	8e	.
=30	=30	=30	=30
*	*	*^	*
4DD# 4BB	8Gn\L	2.B	8e#XL	.
.	8F#\J	.	8f#J	.
2CC# 2C#	2E#X\	.	8f##X	.
.	.	.	4dd#	.
.	.	.	8a#	.
*	*	*v	*v	*
=31	=31	=31	=31
2FFF# 2FF#	2En 2A#	8g#L	.
.	.	8B#XJ	.
.	.	4.d#	.
4FFF# 4FF#	4E 4A#	.	.
.	.	8c#	.
=32	=32	=32	=32
2BBB 2FF#	2D#	4A# 4c#	.
.	.	4B	.
4r	4rc	4raa	.
*	*v	*v	*
==	==	==
*-	*-	*-
!!!system-decoration: {(*)}
!!!ENC: Bryan Jacob Bell
!!!END: November 2021 to April 2022
!!!PED: Konstantin Igumnov and Yakov Milstein
!!!PTL: A.N. Skryabin: Polnoe sobranie sochinenii dlia fortepiano (Muzgiz)
